X: 13340
T: Flatbush
R: waltz
M: 3/4
K: Eminor
B2 Be BA|GF EF GA|B2Be BG|A3c BA|EF GA BG|AE Ac BA|G2GA =FG|E6|
B2 Be BA|GF EF GA|B2Be BG|A3c BA|GA Bc dB|AE Ac BA|G2GA =FG|E6|
g4 fe|f2 B2 B2|e2 d2c2|B6|c4 BA|B2 e2 ef|g3 f ga|f6|
g4 fe|f2 B2 B2|e2 d2c2|B6|c4 BA|B2 G2 EF|G2 GA =FG|E6||

